icon-svg/tomato.svg

<svg xmlns="http://www.w3.org/2000/svg" fill="#44739e" viewBox="0 0 24 24"><path d="M19.668 9.562a9.116 9.116 0 0 0-2.937-2.876c.959-.2 1.156-.362 1.259-.5a.422.422 0 0 0 .086-.32c-.087-.593-.91-.834-2.842-.834-.85 0-1.691.051-2.169.087l.185-2.694a.344.344 0 0 0-.085-.25.338.338 0 0 0-.239-.114L11.638 2a.342.342 0 0 0-.358.322l-.162 2.839c-.443-.026-1.252-.061-2.074-.061-2.326 0-2.794.3-2.954.627a.422.422 0 0 0 0 .376c.079.16.243.339 1.141.609a9.087 9.087 0 0 0-4.328 7.746 6.838 6.838 0 0 0 2.7 5.688A10.515 10.515 0 0 0 12 22a10.515 10.515 0 0 0 6.4-1.859 6.838 6.838 0 0 0 2.7-5.688 9.065 9.065 0 0 0-1.432-4.891m-7.514-2.528a.339.339 0 0 0-.4 0 36.6 36.6 0 0 1-3.367 2.178 19.3 19.3 0 0 1 1.331-2.129.341.341 0 0 0-.218-.532 19.6 19.6 0 0 1-2.48-.63 9.92 9.92 0 0 1 2.02-.143c1.191 0 2.358.085 2.37.086a.34.34 0 0 0 .25-.083.346.346 0 0 0 .116-.237l.166-2.844.6.029-.185 2.741a.344.344 0 0 0 .1.268.339.339 0 0 0 .27.095c.012 0 1.269-.116 2.505-.116a7.56 7.56 0 0 1 1.91.166 18.6 18.6 0 0 1-2.422.441.341.341 0 0 0-.238.534 10.07 10.07 0 0 1 1.326 2.4 20.33 20.33 0 0 1-3.654-2.224"/></svg>

<?xml version="1.0" encoding="UTF-8"?>
<svg width="24px" fill="#44739e" height="24px" viewBox="0 0 24 24" version="1.1" xmlns="http://www.w3.org/2000/svg" xmlns:xlink="http://www.w3.org/1999/xlink">
            <path d="M 19.668,9.562 A 9.116,9.116 0 0 0 16.731,6.686 c 0.959,-0.2 1.156,-0.362 1.259,-0.5 a 0.422,0.422 0 0 0 0.086,-0.32 c -0.087,-0.593 -0.91,-0.834 -2.842,-0.834 -0.85,0 -1.691,0.051 -2.169,0.087 L 13.25,2.425 A 0.344,0.344 0 0 0 13.165,2.175 0.338,0.338 0 0 0 12.926,2.061 L 11.638,2 A 0.342,0.342 0 0 0 11.28,2.322 L 11.118,5.161 C 10.675,5.135 9.866,5.1 9.044,5.1 6.718,5.1 6.25,5.4 6.09,5.727 a 0.422,0.422 0 0 0 0,0.376 c 0.079,0.16 0.243,0.339 1.141,0.609 a 9.087,9.087 0 0 0 -4.328,7.746 6.838,6.838 0 0 0 2.7,5.688 A 10.515,10.515 0 0 0 12,22 10.515,10.515 0 0 0 18.4,20.141 6.838,6.838 0 0 0 21.1,14.453 9.065,9.065 0 0 0 19.668,9.562 Z M 12.154,7.034 a 0.339,0.339 0 0 0 -0.4,0 A 36.612,36.612 0 0 1 8.387,9.212 19.278,19.278 0 0 1 9.718,7.083 0.341,0.341 0 0 0 9.5,6.551 19.615,19.615 0 0 1 7.02,5.921 9.924,9.924 0 0 1 9.04,5.778 c 1.191,0 2.358,0.085 2.37,0.086 a 0.341,0.341 0 0 0 0.25,-0.083 0.346,0.346 0 0 0 0.116,-0.237 l 0.166,-2.844 0.6,0.029 -0.185,2.741 a 0.344,0.344 0 0 0 0.1,0.268 0.339,0.339 0 0 0 0.27,0.095 c 0.012,0 1.269,-0.116 2.505,-0.116 a 7.56,7.56 0 0 1 1.91,0.166 18.629,18.629 0 0 1 -2.422,0.441 0.341,0.341 0 0 0 -0.238,0.534 10.065,10.065 0 0 1 1.326,2.4 20.329,20.329 0 0 1 -3.654,-2.224 z"/>

</svg>
